X: 60
T: Love and Honour
%R: jig
B: Stewart "A Select Collection of Airs, Jigs, Marches and Reels", ca.1784, p.28 #60
F: http://imslp.org/wiki/A_Select_Collection_of_Airs,_Jigs,_Marches_and_Reels_%28Various%29
Z: 2017 John Chambers <jc:trillian.mit.edu>
M: 6/8
L: 1/8
K: D
(A//B//c/ |\
d2)A FDF | Adc Bcd | efg Bcd | cec ABc |\
d2A FDF | Adc Bcd | efg ABc | d3 D2 :|
|: d'//c'//b//c'// |\
d'2a fdf | ad'a fdf | abc' be'd' | Tc'3 a2d' |\
f'd'b d'f'b | e'c'a bd'f | ge'g ed'c' | d'3 d2 :|

%%sep 1 1 500
%%sep 1 1 500

